X: 4839
T: Boys On The Hilltop, The
R: reel
M: 4/4
K: Adorian
A3c ~B2AG|EG~G2 Gz AG|EAAc BGBd|egdg BGdB|
A3c ~B2AG|EG~G2 Gz AB|c3A ~B3c|dBGA BAAG||
A2(3Bcd egdB|GABc defg|aged egdB|GBdB BAA2|
aged egdB|GABc defg|a2ge fdef|g2af gedB||

